X:199
T:Lango Lee,New Way. RH.199
T:New Lango Lee. RH.199
R:jig
S:Rev.R.Harrison’s MS,c1815,Cumbria
O:England
A:Temple Sowerby,Cumbria
Z:vmp.Simon Wilson. Review PJH, 2008.
M:6/8
L:1/8
Q:3/8=120
K:D
d3 f3|ede fdB|ABc d2{ga}b|agf e2d|\
d3 f3|ede fdB|ABc d2{ga}b|agf e2d:|!
|:fga ab=c’|bag fed|fga aba|bd’c’ d’3|\
dfa d’c’b|agf e2d|!
dBd dAd|dgf e2d|\
d3 f3|ede fdB|ABc d2{ga}b|agf e2d:|

